X:1
T:In dulci jubilo
T:Carl Loewe
T:In dulci jubilo
T:CPDL - Creative Commons Attribution Non Commercial 3.0
T:CPDL - Creative Commons Attribution Non Commercial 3.0
C:Carl Loewe
Z:CPDL - Creative Commons Attribution Non Commercial 3.0
%%score [ ( 1 2 ) ( 3 4 ) ( 5 6 ) 7 ]
L:1/8
Q:1/4=144
M:4/4
K:G
V:1 treble nm="S"
V:2 treble 
V:3 treble nm="A"
V:4 treble 
V:5 treble-8 nm="T"
V:6 treble-8 
V:7 bass nm="B"
V:1
"^Etwas bewegt""^I. Chor" z4 | z4!f! d4 | B2 G2 A2 D2 | G4"^II. Chor"!f! e4 | c2 A2 B2 E2 | A4 z4 | %6
w: |1.~In|dul- ci ju- bi-|lo, nun|sin- get und sei|froh:|
w: |2.~O|Je- su par- vu-|le, nach|dir ist mir so|weh!|
w: |3.~O|pa- tris ca- ri-|tas, o|na- ti le- ni-|tas!|
w: |4.~U-|bi sunt gau- di-|a? nir-|gend mehr als all-|da,|
"^I. Chor"!p! [Ad]2 [Ad]2 [Ad]2 [Ad]2 | d4 [Ad]2 [Dd]2 | [Bd]2 [Bd]2 [Bd]2 [Bd]2 | %9
w: Un- sers Her- zens|Won- ne liegt|in prae- se- pi-|
w: Tröst mir mein Ge-|mü- te, o|pu- er op- ti-|
w: Wir all wär'n ver-|dor- ben per|no- str- cri- mi-|
w: da die En- gel|sin- gen wohl|no- va can- ti-|
 [Bd]4 z2"^II. Chor"!f! G2 | B4 G4 | d4 G4 | (e2 gf g2 fe) | d4 d4 | d4 e4 | (A2 B2) c4 | %16
w: o und|leuch- tet|als die|Son- * * * * *|ne ma-|tris in|gre- * mi-|
w: me, durch|al- le|dei- ne|Gü- * * * * *|te, o|prin- ceps|glo- * ri-|
w: na, so|hat er|uns er-|wor- * * * * *|ben coe-|lo- rum|gau- * di-|
w: ca, und|da die|Schel- len|klin- * * * * *|gen in|re- gis|cu- * ri-|
 !fermata!B8 |"^I. Chor"!p![Q:1/4=132]"^Breiter" E4 A4 | G4 F4 | !fermata!G8 | %20
w: o.|Al- pha|es et|O,|
w: ae,|tra- he|me post|te,|
w: a!|Ei- a,|wär’n wir|da,|
w: a.|Ei- a,|wär’n wir|da,|
"^II. Chor"!f! [Ee]4 [Ac]4 | [GA]4 [Fd]4 | !fermata!G8 |] %23
w: Al- pha|es et|O.|
w: tra- he|me post|te!|
w: ei- a,|wär’n wir|da!|
w: ei- a,|wär’n wir|da!|
V:2
 x4 | x8 | x8 | x8 | x8 | x8 | x8 | (A3 B) x4 | x8 | x8 | x8 | x8 | x8 | x8 | x8 | x8 | x8 | x8 | %18
 x8 | x8 | x8 | x8 | x8 |] %23
V:3
!f! D4 | D4 D4 | D4 D4 | D4!f! E4 | E2 E2 E2 E2 | E4 z4 |!p! [DF]2 [DF]2 [DF]2 [DF]2 | %7
 (F3 G) [DF]2 D2 | [DG]2 [DG]2 [DG]2 [DG]2 | [DG]4 z2!f! G2 | G4 G4 | G4 G4 | G8 | G4 G4 | G4 G4 | %15
 G4 F4 | !fermata!G8 |!p! E4 E4 | D4 C4 | !fermata!B,8 |!f! E4 E4 | D4 C4 | !fermata!B,8 |] %23
V:4
 x4 | x8 | x8 | x8 | x8 | x8 | x8 | D4 x4 | x8 | x8 | x8 | x8 | x8 | x8 | x8 | x8 | x8 | x8 | x8 | %19
 x8 | x8 | x8 | x8 |] %23
V:5
!f! B4 | B4 B4 | B4 c4 | B4!f! B4 | c2 c2 d2 d2 | c4 z4 |!p! [Ac]2 [Ac]2 [Ac]2 [Ac]2 | %7
w: 1.~In|dul- ci|ju- bi-|lo, nun|sin- get und sei|froh:|Un- sers Her- zens|
w: 2.~O|Je- su|par- vu-|le, nach|dir ist mir so|weh!|Tröst mir mein Ge-|
w: 3.~O|pa- tris|ca- ri-|tas, o|na- ti le- ni-|tas!|Wir all wär'n ver-|
w: 4.~U-|bi sunt|gau- di-|a? nir-|gend mehr als all-|da,|da die En- gel|
 c4 [Ac]2 [Dc]2 | [GB]2 [GB]2 [GB]2 [GB]2 | [GB]4 z2!f! B2 | d4 B4 | B4 B4 | (c2 ed e2 dc) | %13
w: Won- ne liegt|in prae- se- pi-|o und|leuch- tet|als die|Son- * * * * *|
w: mü- te, o|pu- er op- ti-|me, durch|al- le|dei- ne|Gü- * * * * *|
w: dor- ben per|no- str- cri- mi-|na, so|hat er|uns er-|wor- * * * * *|
w: sin- gen wohl|no- va can- ti-|ca, und|da die|Schel- len|klin- * * * * *|
 B4 B4 | B4 c4 | (c2 B2) (A2 d2) | !fermata!d8 |!p! c4 c4 | B4 A4 | !fermata!G8 |!f! G4 A4 | %21
w: ne ma-|tris in|gre- * mi _|o.|Al- pha|es et|O,|Al- pha|
w: te, o|prin- ceps|glo- * ri _|ae,|tra- he|me post|te,|tra- he|
w: ben coe-|lo- rum|gau- * di- *|a!|Ei- a,|wär’n wir|da,|ei- a,|
w: gen in|re- gis|cu- * ri- *|a.|Ei- a,|wär’n wir|da,|ei- a,|
 A4 A4 | !fermata!G8 |] %23
w: es et|O!|
w: me post|te!|
w: wär’n wir|da!|
w: wär’n wir|da!|
V:6
 x4 | x8 | x8 | x8 | x8 | x8 | x8 | (A3 B) x4 | x8 | x8 | x8 | x8 | x8 | x8 | x8 | x8 | x8 | x8 | %18
 x8 | x8 | x8 | x8 | x8 |] %23
V:7
!f! G,4 | G,4 G,4 | G,4 G,4 | G,4!f! ^G,4 | A,2 A,2 E,2 E,2 | A,,4 z4 |!p! D,2 D,2 D,2 D,2 | %7
 D,4 D,2 D,2 | G,,2 G,,2 G,,2 G,,2 | G,,4 z2!f! G,2 | G,4 G,4 | G,4 G,4 | C8 | G,4 G,4 | G,4 C,4 | %15
 D,4 D,4 | !fermata!G,8 |!p! C,4 C,4 | D,4 D,4 | !fermata!E,8 |!f! C,4 C,4 | D,4 D,4 | %22
 !fermata!G,,8 |] %23

